img/icon=irow-more.svg

<svg width="14" height="14" viewBox="0 0 14 14" fill="none" xmlns="http://www.w3.org/2000/svg">
<path d="M7 12.5L6.64645 12.8536L7 13.2071L7.35355 12.8536L7 12.5ZM6.5 7.5L6.5 12.5L7.5 12.5L7.5 7.5L6.5 7.5ZM7.35355 12.1464L4.85355 9.64645L4.14645 10.3536L6.64645 12.8536L7.35355 12.1464ZM7.35355 12.8536L9.85355 10.3536L9.14645 9.64645L6.64645 12.1464L7.35355 12.8536Z" fill="#333333"/>
<path d="M7 1.5L7.35355 1.14645L7 0.792893L6.64645 1.14645L7 1.5ZM7.5 6.5L7.5 1.5L6.5 1.5L6.5 6.5L7.5 6.5ZM6.64645 1.85355L9.14645 4.35355L9.85355 3.64645L7.35355 1.14645L6.64645 1.85355ZM6.64645 1.14645L4.14645 3.64645L4.85355 4.35355L7.35355 1.85355L6.64645 1.14645Z" fill="#333333"/>
</svg>

<svg width="14" height="14" viewBox="0 0 14 14" fill="none" xmlns="http://www.w3.org/2000/svg">
    <path
        d="M7 12.5l-.354.354.354.353.354-.353L7 12.5zm-.5-5v5h1v-5h-1zm.854 4.646l-2.5-2.5-.708.708 2.5 2.5.708-.708zm0 .708l2.5-2.5-.708-.708-2.5 2.5.708.708zM7 1.5l.354-.354L7 .793l-.354.353L7 1.5zm.5 5v-5h-1v5h1zm-.854-4.646l2.5 2.5.708-.708-2.5-2.5-.708.708zm0-.708l-2.5 2.5.708.708 2.5-2.5-.708-.708z"
        fill="#fff" />
</svg>
